X: 7990
T: Connaught Heifers, The
R: reel
M: 4/4
K: Dmixolydian
AG|:~F3G ~A2BG|(3.A.B.A BG AGFD|~F3G {B}AG{B}GF|DGGG cG AG|
~F3G ~A2BG|(3.A.B.A BG AGFD|~F3G {B}AG{B}GF|DGGB cAAg||
fdef d2cA|AABG ABde|fd (3.g.f.e d2cA|BG~G2 dGGG|
fdec d2cA|.A.A BG ABdg|~f3d edcA|BG~G2 AGFD:|

